packages/foundations/assets/icons/functional/images/business & payment/discount_28.svg

<svg width="28" height="28" viewBox="0 0 28 28" fill="none" xmlns="http://www.w3.org/2000/svg">
<g clip-path="url(#clip0_184_31)">
<path fill-rule="evenodd" clip-rule="evenodd" d="M14 2.0785C14.558 2.0785 15.134 2.2825 15.505 2.7345L17.011 4.5665C17.061 4.6265 17.172 4.6585 17.258 4.6345L19.52 4.0205C19.6841 3.97979 19.8529 3.96129 20.022 3.9655C20.965 3.9655 21.881 4.6385 21.945 5.7425L22.085 8.1225C22.088 8.1765 22.138 8.2365 22.196 8.2585L24.455 9.1055C24.812 9.23946 25.1202 9.47829 25.339 9.79062C25.5578 10.103 25.677 10.4742 25.681 10.8555C25.681 11.2115 25.571 11.5955 25.375 11.8955L24.065 13.8915C24.0484 13.9206 24.0397 13.9535 24.0397 13.987C24.0397 14.0205 24.0484 14.0534 24.065 14.0825L25.375 16.0515C25.586 16.3695 25.681 16.7345 25.681 17.0905C25.681 17.8555 25.18 18.5955 24.455 18.8675L22.196 19.7155C22.136 19.7375 22.086 19.8195 22.082 19.9065L21.945 22.2305C21.886 23.2445 21.072 24.0085 20.022 24.0085C19.8001 23.9999 19.5798 23.9673 19.365 23.9115L17.232 23.3315C17.121 23.3015 17.055 23.3255 17 23.3925L15.505 25.2115C15.135 25.6615 14.585 25.9215 14 25.9215C13.415 25.9215 12.852 25.6805 12.495 25.2385L10.989 23.3795C10.94 23.3195 10.879 23.3015 10.794 23.3245L8.60897 23.9185C8.40268 23.9704 8.19153 24.0005 7.97897 24.0085C6.92397 24.0085 6.11397 23.2395 6.05497 22.2305L5.91697 19.8795C5.91636 19.8441 5.90532 19.8096 5.88522 19.7804C5.86512 19.7513 5.83685 19.7287 5.80397 19.7155L3.54497 18.8675C2.89797 18.6245 2.31897 17.9395 2.31897 17.0905C2.31897 16.7345 2.41397 16.3695 2.62497 16.0505L3.91097 14.1205C3.96897 14.0315 3.93197 13.8855 3.87797 13.8025L2.62497 11.8955C2.42682 11.5847 2.32073 11.2241 2.31897 10.8555C2.31897 10.0805 2.81297 9.3805 3.54497 9.1055L5.77897 8.2675C5.86197 8.2365 5.91197 8.1765 5.91697 8.0945L6.05497 5.7425C6.11497 4.7155 6.95097 3.9655 7.97797 3.9655C8.14497 3.9655 8.31697 3.9755 8.47997 4.0205L10.742 4.6345C10.828 4.6585 10.927 4.6425 10.989 4.5665L12.495 2.7345C12.855 2.2955 13.442 2.0785 14 2.0785ZM13.86 3.8285L12.356 5.6605C11.996 6.0995 11.408 6.3445 10.851 6.3445C10.683 6.3445 10.519 6.3335 10.349 6.2895L8.05897 5.7015C7.95497 5.6745 7.81697 5.7615 7.81197 5.8515L7.67197 8.2035C7.64905 8.56981 7.5213 8.92181 7.30393 9.21755C7.08656 9.51328 6.78874 9.74028 6.44597 9.8715L4.18797 10.7195C4.06797 10.7635 4.04497 10.8755 4.10397 10.9655L5.41397 12.9615C5.63197 13.2925 5.72097 13.6175 5.72097 13.9735C5.72097 14.3285 5.63197 14.6805 5.41397 15.0125L4.10397 17.0085C4.08988 17.0294 4.08081 17.0532 4.07749 17.0782C4.07416 17.1032 4.07667 17.1286 4.0848 17.1524C4.09294 17.1762 4.10649 17.1978 4.12439 17.2156C4.14229 17.2333 4.16405 17.2466 4.18797 17.2545L6.44597 18.1025C7.14597 18.3655 7.62897 19.0325 7.67197 19.7705L7.80697 22.0405C7.81697 22.2105 7.92397 22.3205 8.16697 22.2565L10.245 21.7105C10.4882 21.6456 10.7383 21.6093 10.99 21.6025C11.496 21.6025 11.985 21.8625 12.356 22.3125L13.862 24.1455C13.949 24.2515 14.052 24.2515 14.14 24.1455L15.646 22.3135C16.006 21.8735 16.594 21.6025 16.984 21.6025C17.234 21.6025 17.5 21.6445 17.654 21.6845L19.969 22.2785C20.103 22.3135 20.183 22.2465 20.19 22.1215L20.33 19.7705C20.3525 19.4041 20.4801 19.0519 20.6976 18.7561C20.915 18.4603 21.213 18.2334 21.556 18.1025L23.759 17.2825C23.882 17.2355 23.929 17.0725 23.87 16.9805L22.588 15.0125C22.3851 14.7142 22.2777 14.3612 22.28 14.0005C22.28 13.6455 22.368 13.2925 22.587 12.9605L23.837 11.0705C23.941 10.9115 23.942 10.7675 23.765 10.7005L21.555 9.8715C21.2122 9.74028 20.9144 9.51328 20.697 9.21755C20.4796 8.92181 20.3519 8.56981 20.329 8.2035L20.189 5.8525C20.183 5.7505 20.07 5.6685 19.942 5.7015L17.652 6.2895C17.482 6.3335 17.318 6.3445 17.15 6.3445C16.593 6.3445 16.005 6.0995 15.645 5.6605L14.139 3.8285C14.052 3.7225 13.949 3.7225 13.861 3.8285H13.86ZM9.23297 11.4025C9.23297 10.4455 10.013 9.6805 10.989 9.6805C11.965 9.6805 12.745 10.4455 12.745 11.4025C12.745 12.3595 11.965 13.1255 10.989 13.1255C10.013 13.1255 9.23297 12.3595 9.23297 11.4025ZM9.62297 17.4185C9.62243 17.3066 9.64426 17.1956 9.68719 17.0923C9.73013 16.9889 9.79329 16.8951 9.87297 16.8165L16.9 9.9535C17.0621 9.78716 17.2819 9.68943 17.514 9.6805C17.893 9.6805 18.378 10.0155 18.378 10.5555C18.3784 10.6673 18.3565 10.778 18.3136 10.8812C18.2706 10.9844 18.2075 11.078 18.128 11.1565L11.129 18.0205C10.9564 18.1836 10.7264 18.272 10.489 18.2665C10.3764 18.2678 10.2648 18.2469 10.1603 18.205C10.0559 18.163 9.96076 18.1009 9.88039 18.0221C9.80003 17.9433 9.73601 17.8494 9.69201 17.7459C9.648 17.6423 9.62388 17.531 9.62297 17.4185ZM15.673 16.5435C15.673 15.6135 16.453 14.8205 17.429 14.8205C18.405 14.8205 19.185 15.6135 19.185 16.5435C19.185 17.5005 18.405 18.2665 17.429 18.2665C16.453 18.2665 15.673 17.5005 15.673 16.5435Z" fill="#1A1C1F"/>
</g>
<defs>
<clipPath id="clip0_184_31">
<rect width="28" height="28" fill="white"/>
</clipPath>
</defs>
</svg>

<svg xmlns="http://www.w3.org/2000/svg" width="28" height="28" fill="none"><g clip-path="url(#a)"><path fill="#1A1C1F" fill-rule="evenodd" d="M14 2.079c.558 0 1.134.204 1.505.656l1.506 1.831c.05.06.161.093.247.069l2.262-.614q.247-.062.502-.055c.943 0 1.859.672 1.923 1.776l.14 2.38c.003.055.053.114.111.136l2.259.848a1.89 1.89 0 0 1 1.226 1.75c0 .355-.11.74-.306 1.04l-1.31 1.995a.19.19 0 0 0 0 .191l1.31 1.97c.211.317.306.683.306 1.038 0 .765-.501 1.506-1.226 1.777l-2.259.848c-.06.023-.11.105-.114.192l-.137 2.323c-.059 1.014-.873 1.779-1.923 1.779a3 3 0 0 1-.657-.098l-2.133-.58c-.111-.03-.177-.005-.232.061l-1.495 1.82c-.37.45-.92.71-1.505.71s-1.148-.242-1.505-.684l-1.506-1.858c-.049-.06-.11-.078-.195-.055l-2.185.594a3 3 0 0 1-.63.09c-1.055 0-1.865-.77-1.924-1.779l-.138-2.35a.18.18 0 0 0-.113-.165l-2.259-.848c-.647-.242-1.226-.928-1.226-1.777 0-.355.095-.72.306-1.04l1.286-1.93c.058-.088.021-.234-.033-.317l-1.253-1.908a1.95 1.95 0 0 1-.306-1.04c0-.774.494-1.475 1.226-1.75l2.234-.838c.083-.03.133-.09.138-.172l.138-2.353c.06-1.027.896-1.776 1.923-1.776.167 0 .339.01.502.054l2.262.615c.086.024.185.008.247-.069l1.506-1.831c.36-.44.947-.656 1.505-.656m-.14 1.75L12.356 5.66c-.36.44-.948.684-1.505.684-.168 0-.332-.01-.502-.054l-2.29-.588c-.104-.027-.242.06-.247.15l-.14 2.351a1.91 1.91 0 0 1-1.226 1.668l-2.258.848c-.12.045-.143.157-.084.247l1.31 1.995c.218.332.307.656.307 1.012 0 .355-.089.707-.307 1.04l-1.31 1.996a.163.163 0 0 0 .084.245l2.258.848c.7.264 1.183.93 1.226 1.668l.135 2.27c.01.17.117.28.36.216l2.078-.546q.366-.096.745-.108c.506 0 .995.26 1.366.71l1.506 1.833c.087.107.19.107.278 0l1.506-1.831c.36-.44.948-.712 1.338-.712.25 0 .516.043.67.082l2.315.595c.134.035.214-.032.221-.157l.14-2.352a1.91 1.91 0 0 1 1.226-1.668l2.203-.82c.123-.047.17-.21.111-.302l-1.282-1.968a1.8 1.8 0 0 1-.308-1.011c0-.355.088-.708.307-1.04l1.25-1.89c.104-.16.105-.303-.072-.37l-2.21-.83a1.91 1.91 0 0 1-1.226-1.668l-.14-2.35c-.006-.103-.119-.184-.247-.151l-2.29.588c-.17.043-.334.054-.502.054-.557 0-1.145-.245-1.505-.684l-1.506-1.832c-.087-.105-.19-.105-.278 0zm-4.627 7.573c0-.957.78-1.721 1.756-1.721s1.756.765 1.756 1.722-.78 1.723-1.756 1.723-1.756-.766-1.756-1.723m.39 6.017a.84.84 0 0 1 .25-.602L16.9 9.954a.9.9 0 0 1 .614-.274c.379 0 .864.335.864.876a.84.84 0 0 1-.25.6l-6.999 6.864a.9.9 0 0 1-.64.247.856.856 0 0 1-.866-.848m6.05-.875c0-.93.78-1.724 1.756-1.724s1.756.793 1.756 1.724c0 .956-.78 1.723-1.756 1.723s-1.756-.767-1.756-1.723" clip-rule="evenodd"/></g><defs><clipPath id="a"><path fill="#fff" d="M0 0h28v28H0z"/></clipPath></defs></svg>
